X:3043
T:Coming Through the Rye
R:Reel
C:Trad. Burns
O:Scotland
Z:Paul Hardy's Session Tunebook 2022 (see www.paulhardy.net). Creative Commons cc by-nc-sa licenced.
M:4/4
L:1/4
Q:1/4=200
K:G
"G" D>D D<B|"Am" A>G A<B|"G" D>D "C" E<D|"G" G2-Gz|"G" D>D d<B|"Am" A>G A<B|"G" D>D "C" E>D|"G" G2-Gz||
"G" d>B G<B|"Am" A>G A<B|"G" d>B (3GBd|"C" e2-e e|"G" d>B "C" c>A|"G" B>G "D" A<B|"G" D<D "C" E>D|"G" G4|]

